X:155
T: Christmas at the Mahers'
C: BB
R: slipjig
Q: 1/8=320
M: 9/8
L: 1/8
K: G
E|"G"DGB "D"Adc "G"BGG|"G"DGB "D"ded "Am"A2 E|"G"DBG "D"Adc "G"BGD|\
"C"ECE "D"DEF "G"G2 :|
e|"G"gdg "C"ece "G"dBG|"G"gfg "C"efg "Am"a2 e|"G"gdg "Am"ecA "Em"BGE|\
"G"DGB "D"AFA "G"G2 :|
%%%%%%%%%%%%%%%%%%%%%%%%%%%%%%%%%%%%%%%%%%%
